X:1
T:[ID 1-95b]
T:[ID 1-95b]
T:Bezeichnung standardisiert: Cotillon nouveau; Courante In dieser Quelle auch als: Sesken In anderer Quelle: Cotillon Nouveau - De Nieuwe Hollandsche schouwburg 1760 (Anm. S. Wascher);
T:Urheber unbekannt Erstbeleg: 1760 (Datum in der schriftlichen Quelle) Datum in der hier transkribierten schriftlichen Quelle: 1792
C:Urheber unbekannt
C:Erstbeleg: 1760 (Datum in der schriftlichen Quelle)
C:Datum in der hier transkribierten schriftlichen Quelle: 1792
L:1/8
M:2/4
K:G
V:1 treble 
V:1
 G/A/B/c/ dd | efga | G/A/B/c/ dd | ef g2 :: G/A/B/c/ dd | dc/B/ A2 | BA/B/ c/B/A/G/ | %7
 F/G/A/F/ D2 | G/A/B/c/ dd | efgc | B/A/G/G/ A/c/A/F/ | G2 G2 :| %12

